X:1
T:Der Sängerbund
T:Peter Joseph von Lindpaintner
T:M. Tr. Pfeiffer
T:Der Sängerbund
T:CPDL - Creative Commons Attribution Non Commercial 3.0
T:CPDL - Creative Commons Attribution Non Commercial 3.0
T:CPDL - Creative Commons Attribution Non Commercial 3.0
C:Peter Joseph von Lindpaintner
Z:M. Tr. Pfeiffer
Z:CPDL - Creative Commons Attribution Non Commercial 3.0
%%score [ 1 2 ( 3 4 ) ]
L:1/8
Q:1/4=90
M:3/4
K:C
V:1 treble-8 nm="Tenor\n1"
V:2 treble-8 nm="Tenor\n2"
V:3 bass nm="Bass"
V:4 bass 
V:1
"^Feurig""^Tutti"!ff! G>c | e3 !>!G !>!c!>!e | g6 | d>e !>!gf ed | !>!d>^d e2 c>c | a3 a aa | %6
w: Le- be|hoch, und drei- mal|hoch!|was wir lie- bend schon um-|fan- * gen! Was wir|wün- schen und ver-|
w: ||||||
 g>f e2 a/e/ f/d/ | c/G/ c/e/ g2- g/f/ d/e/ | c2 z2!fine! ||"^Soli""^dolce"!mp! Gc | e3 e e{g}f | %11
w: lan- * gen, spross‘ * und *|blü- * he * schö- * * ner *|noch!|1.~Blüh‘ und|wach- se schön em-|
w: |||2.~Rei- ne|Stim- men, rein‘- res|
!>(!{e} d4!>)! g/f/ d/e/ | cd ef/g/=b/a/ f/d/ | c>d B2 de | !>!e>f d2 ef | %15
w: por, was * wir *|wün- schen und _ _ _ _ ver- *|lan- * gen, was wir|lie- * bend schon um-|
w: Herz, laut‘- * res *|Lob vom Ken- * * * * ner- *|mun- * de. Heil und|Se- * gen un- serm|
 !>!^f>g e2{g} =f/e/ f/d/ | c/G/ c/e/ a2- a/g/ f/d/ | c2 z2!f! d>d | !>!g3 d eB | d>c c2 cc | %20
w: fan- * gen, blüh‘ * in *|im- * mer * schön‘- * * rem *|Flor! Fried‘ und|Frei- heit je- der|Zo- * ne, Recht und|
w: Bun- * de! höh‘- * res *|Stre- * ben * al- * * ler- *|wärts! Stets für|Wahr- heit, Recht und|Gü- * te, Glut- be-|
 !>!a3 ^f dc | B>c d2!p! g>^f | (^f2 e)e e e/d/ | (c2 B2)!f! d/e/ ^f/g/ | g/e/ c/A/ !>!e3 d | %25
w: Weis- heit auf dem|Thro- * ne! Schön- heit|durch _ Na- tur und *|Kunst; _ nur * der *|Ed- * len * Lieb‘ und|
w: geist‘- rung im Ge-|mü- * te! Was die|Kunst _ zum Her- zen *|sprach, _ kling‘ * im *|Tun * und * Le- ben|
"^2 mal" G2 z2!D.C.! |] %26
w: Gunst!|
w: nach!|
V:2
!ff! G>c | e3 !>!G !>!c!>!e | g6 | B>c !>!^AB cB | B2 c2 z2 | A>B cB cd | e>d c2 cA | G3 c BG | %8
w: Le- be|hoch, und drei- mal|hoch!|was wir lie- bend schon um-|fan- gen!|Was wir wün- schen und ver-|lan- * gen, spross‘ und|blü- he schö- ner|
w: ||||||||
 G2 z2 ||"^dolce"!mp! GG | c3 c cc |!>(! B4!>)! BB | AB c^c dA | G2 G2 Bc | !>!^A>B B2 cB | %15
w: noch!|1.~Blüh‘ und|wach- se schön em-|por, was wir|wün- schen und _ _ ver-|lan- gen, was wir|lie- * bend schon um-|
w: |2.~Rei- ne|Stim- men, rein‘- res|Herz, laut‘- res|Lob vom Ken- * * ner-|mun- de. Heil und|Se- * gen un- serm|
 !>!_B2 B2 AA | c3 ^c dB | c2 z2!f! B>B | !>!d3 B B^G | B>A A2 AA | !>!c3 c Ad | G>A B2!p! d>d | %22
w: fan- gen, blüh‘ in|im- mer schön‘- rem|Flor! Fried‘ und|Frei- heit je- der|Zo- * ne, Recht und|Weis- heit auf dem|Thro- * ne! Schön- heit|
w: Bun- de! höh‘- res|Stre- ben al- ler-|wärts! Stets für|Wahr- heit, Recht und|Gü- * te, Glut- be-|geist‘- rung im Ge-|mü- * te! Was die|
 c3 c/B/ A c/B/ | (A2 G2)!f! GG | GA !>!c3 ^F | G2 z2 |] %26
w: durch Na- * tur und *|Kunst; _ nur der|Ed- len Lieb‘ und|Gunst!|
w: Kunst zum * Her- zen *|sprach, _ kling‘ im|Tun und Le- ben|nach!|
V:3
!ff! G,,>C, | E,3 !>!G,, !>!C,!>!E, | G,6 | F,>E, !>!^C,D, E,F, | F,2 E,2 C,>C, | F,3 F, F,F, | %6
w: ||||* * Was wir|wün- schen * *|
 E,>F, G,2 A,F, | E,3 E, D,F, | E,2 z2 ||"^dolce"!mp! E,E, | G,3 ^G, G,A, |!>(! F,4!>)! D,F, | %12
w: ||||||
 E,G, G,_B, A, A,/F,/ | E,>F, D,2 G,G, | !>!G,2 G,2 G,F, | !>!E,2 G,2 F,F, | E,3 E, F, D,/F,/ | %17
w: |||||
 E,2 z2!f! G,>G, | !>!B,3 G, ^G,E, | E,2 E,2 E,_E, | !>!D,3 D, ^F,A, | G,2 G,2!p! G,>G, | %22
w: |||||
 G,3 G, ^F,F, | (^F,2 G,2)!f! =D,D, | E,E, !>!^F,3 A, | G,2 z2 |] %26
w: ||||
V:4
 G,,>C, | E,3 !>!G,, !>!C,!>!E, | G,6 | G,,>G,, !>!G,,G,, G,,G,, | C,2 C,2 x2 | %5
w: |||||
 F,,>G,, A,,G,, A,,B,, | C,>D, E,2 F,F,, | G,,3 G,, G,,G,, | C,2 x2 || C,C, | C,3 C, C,C, | %11
w: Was wir wün- schen * *||||||
 G,,4 G,,G,, | A,,G,, C,E, F,F,, | G,,2 G,,2 F,E, | !>!^C,>D, F,2 E,D, | !>!C,2 ^C,2 D,F,, | %16
w: |||||
 G,,3 G,, G,,G,, | C,2 x2 G,>G, | !>!G,3 G, E,E, | A,,2 A,,2 A,,G,, | !>!^F,,3 A,, D,^F, | %21
w: |||||
 G,2 G,,2 B,,>B,, | C,3 C, D,D, | (^D,2 E,2) B,,B,, | C,C, !>!D,3 D, | G,2 x2 |] %26
w: |||||

